data/zcool-qingke-huangyou.svg

<svg width="124.53" height="14" viewBox="0 0 124.53 14" xmlns="http://www.w3.org/2000/svg"><path transform="translate(0 12.32) scale(.014 -.014)" d="m407-9h-317q-40 0-40 40v50q0 28 14 50l263 443q7 13 7 23 0 11-9 18t-25 7h-210q-40 0-40 40v11q0 40 40 40h317q40 0 40-40v-53q0-28-14-50l-261-440q-7-13-7-23 0-11 9-18t25-7h208q40 0 40-40v-11q0-40-40-40z"/><path transform="translate(6.958 12.32) scale(.014 -.014)" d="m355 471v108q0 40-40 40h-134q-40 0-40-40v-457q0-40 40-40h134q40 0 40 40v98q0 40 40 40h11q40 0 40-40v-127q0-29-20-49l-33-33q-20-20-49-20h-192q-29 0-49 20l-33 33q-20 20-20 49v515q0 29 20 49l33 33q20 20 49 20h192q29 0 49-20l33-33q20-20 20-49v-137q0-40-40-40h-11q-40 0-40 40z"/><path transform="translate(13.902 12.32) scale(.014 -.014)" d="m426 43-32-32q-20-20-49-20h-193q-29 0-49 20l-33 33q-20 20-20 49v516q0 29 20 50l32 32q20 20 49 20h194q29 0 49-21l32-32q20-20 20-49v-516q0-29-20-50zm-71 79v458q0 40-40 40h-134q-40 0-40-40v-458q0-40 40-40h134q40 0 40 40z"/><path transform="translate(20.846 12.32) scale(.014 -.014)" d="m426 43-32-32q-20-20-49-20h-193q-29 0-49 20l-33 33q-20 20-20 49v516q0 29 20 50l32 32q20 20 49 20h194q29 0 49-21l32-32q20-20 20-49v-516q0-29-20-50zm-71 79v458q0 40-40 40h-134q-40 0-40-40v-458q0-40 40-40h134q40 0 40 40z"/><path transform="translate(27.79 12.32) scale(.014 -.014)" d="m445 42v-11q0-40-40-40h-254q-29 0-49 21l-32 32q-20 20-20 49v577q0 40 40 40h11q40 0 40-40v-548q0-40 40-40h224q40 0 40-40z"/><path transform="translate(37.1 12.32) scale(.014 -.014)" d="m444-48v-11q0-40-40-40h-114q-30 0-50 20l-32 32q-20 20-20 49 0 15-8.5 23t-24.5 8h-4q-29 0-49 20l-32 32q-20 20-20 49v474q0 29 20 50l32 32q20 20 49 20h192q29 0 49-21l32-32q20-20 20-49v-474q0-29-20-49l-32-32q-20-20-49-20h-24q-19 0-29.5-5.5t-10.5-15.5 10.5-15.5 29.5-5.5l85 1q40 0 40-40zm-90 211v416q0 40-40 40h-134q-40 0-40-40v-416q0-40 40-40h134q40 0 40 40z"/><path transform="translate(44.016 12.32) scale(.014 -.014)" d="m106 632q16 0 31-15t15-31-15-31-31-15-31 15-15 31 15 31 31 15zm-5-147h10q40 0 40-40v-414q0-40-40-40h-10q-40 0-40 40v414q0 40 40 40z"/><path transform="translate(46.984 12.32) scale(.014 -.014)" d="m111-10h-11q-40 0-40 40v353q0 29 20 49l33 33q20 20 49 20h124q29 0 49-21l32-32q20-20 20-49v-353q0-40-40-40h-10q-40 0-40 40v324q0 40-40 40h-66q-40 0-40-40v-324q0-40-40-40z"/><path transform="translate(53.242 12.32) scale(.014 -.014)" d="m285 32v23q0 40-40 40h-93q-30 0-50 20l-32 32q-20 20-20 49v187q0 29 20 49l33 33q20 20 49 20h184q40 0 40-40v-442q0-15-5-26.5t-16-22.5l-32-32q-20-20-49-20h-175q-40 0-40 40v10q0 40 40 40h146q40 0 40 40zm-104 154h64q40 0 40 40v128q0 40-40 40h-64q-40 0-40-40v-128q0-40 40-40z"/><path transform="translate(59.346 12.32) scale(.014 -.014)" d="m406-9h-11q-40 0-40 40v59q0 16-5 27.5t-18 21.5l-142 117q-12 11-25 11-11 0-17.5-9t-6.5-25v-202q0-40-40-40h-11q-40 0-40 40v640q0 40 40 40h11q40 0 40-40v-218q0-16 6-25.5t16-9.5q12 0 27 15l145 147q20 21 20 50v41q0 40 40 40h11q40 0 40-40v-78q0-29-20-50l-168-171q-13-13-13-28 0-16 16-29l162-132q13-10 18-21.5t5-27.5v-103q0-40-40-40z"/><path transform="translate(66.15 12.32) scale(.014 -.014)" d="m335 177h-154q-40 0-40-40v-14q0-40 40-40h154q40 0 40-40v-11q0-40-40-40h-184q-29 0-49 21l-32 32q-20 20-20 49v290q0 29 20 49l32 32q20 20 49 20h123q29 0 49-20l32-32q20-20 20-49v-167q0-40-40-40zm-154 80h63q40 0 40 40v58q0 40-40 40h-63q-40 0-40-40v-58q0-40 40-40z"/><path transform="translate(74.62 12.32) scale(.014 -.014)" d="m395 711h11q40 0 40-40v-640q0-40-40-40h-11q-40 0-40 40v261q0 40-40 40h-134q-40 0-40-40v-261q0-40-40-40h-11q-40 0-40 40v640q0 40 40 40h11q40 0 40-40v-208q0-40 40-40h134q40 0 40 40v208q0 40 40 40z"/><path transform="translate(81.564 12.32) scale(.014 -.014)" d="m335 485h11q40 0 40-40v-352q0-29-20-50l-32-32q-20-20-49-20h-123q-29 0-49 20l-33 33q-20 20-20 49v352q0 40 40 40h11q40 0 40-40v-323q0-40 40-40h64q40 0 40 40v323q0 40 40 40z"/><path transform="translate(87.808 12.32) scale(.014 -.014)" d="m103 12-33 33q-20 20-20 49v116q0 15 5 26.5t16 22.5l32 32q20 20 49 20h95q40 0 40 40v3q0 40-40 40h-154q-40 0-40 40v11q0 40 40 40h183q29 0 49-20l33-33q20-20 20-49v-351q0-40-40-40h-186q-29 0-49 20zm144 217h-66q-40 0-40-40v-75q0-40 40-40h66q40 0 40 40v75q0 40-40 40z"/><path transform="translate(93.94 12.32) scale(.014 -.014)" d="m111-10h-11q-40 0-40 40v353q0 29 20 49l33 33q20 20 49 20h124q29 0 49-21l32-32q20-20 20-49v-353q0-40-40-40h-10q-40 0-40 40v324q0 40-40 40h-66q-40 0-40-40v-324q0-40-40-40z"/><path transform="translate(100.2 12.32) scale(.014 -.014)" d="m285 32v23q0 40-40 40h-93q-30 0-50 20l-32 32q-20 20-20 49v187q0 29 20 49l33 33q20 20 49 20h184q40 0 40-40v-442q0-15-5-26.5t-16-22.5l-32-32q-20-20-49-20h-175q-40 0-40 40v10q0 40 40 40h146q40 0 40 40zm-104 154h64q40 0 40 40v128q0 40-40 40h-64q-40 0-40-40v-128q0-40 40-40z"/><path transform="translate(106.3 12.32) scale(.014 -.014)" d="m78 681 115-199q16-28 22-28 7 0 22 28l113 199q15 28 48 28h6q16 0 25.5-7.5t9.5-18.5-7-22l-158-275q-13-23-13-50v-306q0-40-40-40h-11q-40 0-40 40v306q0 27-13 50l-160 275q-7 11-7 23 0 11 9 18t25 7h6q32 0 48-28z"/><path transform="translate(112.31 12.32) scale(.014 -.014)" d="m377 383v-290q0-29-20-50l-32-32q-20-20-49-20h-124q-29 0-49 20l-33 33q-20 20-20 49v290q0 29 20 49l33 33q20 20 49 20h124q29 0 49-20l32-32q20-21 20-50zm-131 11h-65q-40 0-40-40v-232q0-40 40-40h65q40 0 40 40v232q0 40-40 40z"/><path transform="translate(118.29 12.32) scale(.014 -.014)" d="m335 485h11q40 0 40-40v-352q0-29-20-50l-32-32q-20-20-49-20h-123q-29 0-49 20l-33 33q-20 20-20 49v352q0 40 40 40h11q40 0 40-40v-323q0-40 40-40h64q40 0 40 40v323q0 40 40 40z"/></svg>

<?xml version="1.0" encoding="utf-8" ?>
<svg baseProfile="tiny" height="100%" version="1.2" width="100%" xmlns="http://www.w3.org/2000/svg" xmlns:ev="http://www.w3.org/2001/xml-events" xmlns:xlink="http://www.w3.org/1999/xlink"><defs /><g><path d="M407 -9H90Q50 -9 50 31V81Q50 109 64 131L327 574Q334 587 334 597Q334 608 325.0 615.0Q316 622 300 622H90Q50 622 50 662V673Q50 713 90 713H407Q447 713 447 673V620Q447 592 433 570L172 130Q165 117 165 107Q165 96 174.0 89.0Q183 82 199 82H407Q447 82 447 42V31Q447 -9 407 -9Z" transform="translate(0.0, 72) scale(0.072, -0.072)" /><path d="M355 471V579Q355 619 315 619H181Q141 619 141 579V122Q141 82 181 82H315Q355 82 355 122V220Q355 260 395 260H406Q446 260 446 220V93Q446 64 426 44L393 11Q373 -9 344 -9H152Q123 -9 103 11L70 44Q50 64 50 93V608Q50 637 70 657L103 690Q123 710 152 710H344Q373 710 393 690L426 657Q446 637 446 608V471Q446 431 406 431H395Q355 431 355 471Z" transform="translate(35.784, 72) scale(0.072, -0.072)" /><path d="M426 43 394 11Q374 -9 345 -9H152Q123 -9 103 11L70 44Q50 64 50 93V609Q50 638 70 659L102 691Q122 711 151 711H345Q374 711 394 690L426 658Q446 638 446 609V93Q446 64 426 43ZM355 122V580Q355 620 315 620H181Q141 620 141 580V122Q141 82 181 82H315Q355 82 355 122Z" transform="translate(71.496, 72) scale(0.072, -0.072)" /><path d="M426 43 394 11Q374 -9 345 -9H152Q123 -9 103 11L70 44Q50 64 50 93V609Q50 638 70 659L102 691Q122 711 151 711H345Q374 711 394 690L426 658Q446 638 446 609V93Q446 64 426 43ZM355 122V580Q355 620 315 620H181Q141 620 141 580V122Q141 82 181 82H315Q355 82 355 122Z" transform="translate(107.208, 72) scale(0.072, -0.072)" /><path d="M445 42V31Q445 -9 405 -9H151Q122 -9 102 12L70 44Q50 64 50 93V670Q50 710 90 710H101Q141 710 141 670V122Q141 82 181 82H405Q445 82 445 42Z" transform="translate(142.92, 72) scale(0.072, -0.072)" /><path d="M444 -48V-59Q444 -99 404 -99H290Q260 -99 240 -79L208 -47Q188 -27 188 2Q188 17 179.5 25.0Q171 33 155 33H151Q122 33 102 53L70 85Q50 105 50 134V608Q50 637 70 658L102 690Q122 710 151 710H343Q372 710 392 689L424 657Q444 637 444 608V134Q444 105 424 85L392 53Q372 33 343 33H319Q300 33 289.5 27.5Q279 22 279 12Q279 2 289.5 -3.5Q300 -9 319 -9L404 -8Q444 -8 444 -48ZM354 163V579Q354 619 314 619H180Q140 619 140 579V163Q140 123 180 123H314Q354 123 354 163Z" transform="translate(190.79999999999998, 72) scale(0.072, -0.072)" /><path d="M106 632Q122 632 137 617Q152 602 152 586Q152 570 137 555Q122 540 106 540Q90 540 75 555Q60 570 60 586Q60 602 75 617Q90 632 106 632ZM101 485H111Q151 485 151 445V31Q151 -9 111 -9H101Q61 -9 61 31V445Q61 485 101 485Z" transform="translate(226.368, 72) scale(0.072, -0.072)" /><path d="M111 -10H100Q60 -10 60 30V383Q60 412 80 432L113 465Q133 485 162 485H286Q315 485 335 464L367 432Q387 412 387 383V30Q387 -10 347 -10H337Q297 -10 297 30V354Q297 394 257 394H191Q151 394 151 354V30Q151 -10 111 -10Z" transform="translate(241.632, 72) scale(0.072, -0.072)" /><path d="M285 32V55Q285 95 245 95H152Q122 95 102 115L70 147Q50 167 50 196V383Q50 412 70 432L103 465Q123 485 152 485H336Q376 485 376 445V3Q376 -12 371.0 -23.5Q366 -35 355 -46L323 -78Q303 -98 274 -98H99Q59 -98 59 -58V-48Q59 -8 99 -8H245Q285 -8 285 32ZM181 186H245Q285 186 285 226V354Q285 394 245 394H181Q141 394 141 354V226Q141 186 181 186Z" transform="translate(273.81600000000003, 72) scale(0.072, -0.072)" /><path d="M406 -9H395Q355 -9 355 31V90Q355 106 350.0 117.5Q345 129 332 139L190 256Q178 267 165 267Q154 267 147.5 258.0Q141 249 141 233V31Q141 -9 101 -9H90Q50 -9 50 31V671Q50 711 90 711H101Q141 711 141 671V453Q141 437 147.0 427.5Q153 418 163 418Q175 418 190 433L335 580Q355 601 355 630V671Q355 711 395 711H406Q446 711 446 671V593Q446 564 426 543L258 372Q245 359 245 344Q245 328 261 315L423 183Q436 173 441.0 161.5Q446 150 446 134V31Q446 -9 406 -9Z" transform="translate(305.208, 72) scale(0.072, -0.072)" /><path d="M335 177H181Q141 177 141 137V123Q141 83 181 83H335Q375 83 375 43V32Q375 -8 335 -8H151Q122 -8 102 13L70 45Q50 65 50 94V384Q50 413 70 433L102 465Q122 485 151 485H274Q303 485 323 465L355 433Q375 413 375 384V217Q375 177 335 177ZM181 257H244Q284 257 284 297V355Q284 395 244 395H181Q141 395 141 355V297Q141 257 181 257Z" transform="translate(340.20000000000005, 72) scale(0.072, -0.072)" /><path d="M395 711H406Q446 711 446 671V31Q446 -9 406 -9H395Q355 -9 355 31V292Q355 332 315 332H181Q141 332 141 292V31Q141 -9 101 -9H90Q50 -9 50 31V671Q50 711 90 711H101Q141 711 141 671V463Q141 423 181 423H315Q355 423 355 463V671Q355 711 395 711Z" transform="translate(383.76000000000005, 72) scale(0.072, -0.072)" /><path d="M335 485H346Q386 485 386 445V93Q386 64 366 43L334 11Q314 -9 285 -9H162Q133 -9 113 11L80 44Q60 64 60 93V445Q60 485 100 485H111Q151 485 151 445V122Q151 82 191 82H255Q295 82 295 122V445Q295 485 335 485Z" transform="translate(419.47200000000004, 72) scale(0.072, -0.072)" /><path d="M103 12 70 45Q50 65 50 94V210Q50 225 55.0 236.5Q60 248 71 259L103 291Q123 311 152 311H247Q287 311 287 351V354Q287 394 247 394H93Q53 394 53 434V445Q53 485 93 485H276Q305 485 325 465L358 432Q378 412 378 383V32Q378 -8 338 -8H152Q123 -8 103 12ZM247 229H181Q141 229 141 189V114Q141 74 181 74H247Q287 74 287 114V189Q287 229 247 229Z" transform="translate(451.58400000000006, 72) scale(0.072, -0.072)" /><path d="M111 -10H100Q60 -10 60 30V383Q60 412 80 432L113 465Q133 485 162 485H286Q315 485 335 464L367 432Q387 412 387 383V30Q387 -10 347 -10H337Q297 -10 297 30V354Q297 394 257 394H191Q151 394 151 354V30Q151 -10 111 -10Z" transform="translate(483.12000000000006, 72) scale(0.072, -0.072)" /><path d="M285 32V55Q285 95 245 95H152Q122 95 102 115L70 147Q50 167 50 196V383Q50 412 70 432L103 465Q123 485 152 485H336Q376 485 376 445V3Q376 -12 371.0 -23.5Q366 -35 355 -46L323 -78Q303 -98 274 -98H99Q59 -98 59 -58V-48Q59 -8 99 -8H245Q285 -8 285 32ZM181 186H245Q285 186 285 226V354Q285 394 245 394H181Q141 394 141 354V226Q141 186 181 186Z" transform="translate(515.3040000000001, 72) scale(0.072, -0.072)" /><path d="M78 681 193 482Q209 454 215 454Q222 454 237 482L350 681Q365 709 398 709H404Q420 709 429.5 701.5Q439 694 439 683Q439 672 432 661L274 386Q261 363 261 336V30Q261 -10 221 -10H210Q170 -10 170 30V336Q170 363 157 386L-3 661Q-10 672 -10 684Q-10 695 -1.0 702.0Q8 709 24 709H30Q62 709 78 681Z" transform="translate(546.6960000000001, 72) scale(0.072, -0.072)" /><path d="M377 383V93Q377 64 357 43L325 11Q305 -9 276 -9H152Q123 -9 103 11L70 44Q50 64 50 93V383Q50 412 70 432L103 465Q123 485 152 485H276Q305 485 325 465L357 433Q377 412 377 383ZM246 394H181Q141 394 141 354V122Q141 82 181 82H246Q286 82 286 122V354Q286 394 246 394Z" transform="translate(577.5840000000002, 72) scale(0.072, -0.072)" /><path d="M335 485H346Q386 485 386 445V93Q386 64 366 43L334 11Q314 -9 285 -9H162Q133 -9 113 11L80 44Q60 64 60 93V445Q60 485 100 485H111Q151 485 151 445V122Q151 82 191 82H255Q295 82 295 122V445Q295 485 335 485Z" transform="translate(608.3280000000002, 72) scale(0.072, -0.072)" /></g></svg>
